app/assets/images/heroicons/outline/home.svg

<svg width="24" height="24" viewBox="0 0 24 24" fill="none" xmlns="http://www.w3.org/2000/svg">
<path d="M2.25 12L11.2045 3.04549C11.6438 2.60615 12.3562 2.60615 12.7955 3.04549L21.75 12M4.5 9.75V19.875C4.5 20.4963 5.00368 21 5.625 21H9.75V16.125C9.75 15.5037 10.2537 15 10.875 15H13.125C13.7463 15 14.25 15.5037 14.25 16.125V21H18.375C18.9963 21 19.5 20.4963 19.5 19.875V9.75M8.25 21H16.5" stroke="#0F172A" stroke-width="1.5" stroke-linecap="round" stroke-linejoin="round"/>
</svg>

<svg xmlns="http://www.w3.org/2000/svg" fill="none" viewBox="0 0 24 24" stroke-width="1.5" stroke="currentColor" aria-hidden="true" data-slot="icon">
  <path stroke-linecap="round" stroke-linejoin="round" d="m2.25 12 8.954-8.955c.44-.439 1.152-.439 1.591 0L21.75 12M4.5 9.75v10.125c0 .621.504 1.125 1.125 1.125H9.75v-4.875c0-.621.504-1.125 1.125-1.125h2.25c.621 0 1.125.504 1.125 1.125V21h4.125c.621 0 1.125-.504 1.125-1.125V9.75M8.25 21h8.25"/>
</svg>
